X: 2267
M: C
L: 1/8
K: G
vdc !segno!|:\
fgaf g2fd | dcAc d2de |
fgaf g2fd | dcAc BGG2 |\
fgaf g2fd | dcAc d2cA |\
fgaf gbag | fdcA BG"_D.C."Ac !segno! |]


